lib/brands/icons/apple-macintosh.svg

<svg xmlns="http://www.w3.org/2000/svg" fill="none" aria-hidden="true" viewBox="0 0 48 48"><g id="apple-macintosh-Icon"><g id="Group"><g id="Vector"><path fill="#61BB46" d="M18.197 14.3895C15.4233 14.3895 12.4863 16.0796 10.6276 18.9532C10.616 18.9706 10.6038 18.9892 10.5921 19.0085L10.5781 19.0317V19.1557L37.3608 19.1575L37.3879 19.1344C37.7925 18.7901 38.2454 18.4766 38.7478 18.2003L38.8487 18.1448L38.7768 18.0548C36.9243 15.7354 34.3184 14.3873 31.8509 14.3873C30.2234 14.3873 29.0652 14.7759 28.0394 15.1613C27.9464 15.1962 27.8547 15.231 27.7639 15.2655C26.8507 15.6121 26.0323 15.9228 25.0358 15.9228C23.9566 15.9228 22.9999 15.5804 21.9785 15.2149C21.9292 15.1972 21.8797 15.1795 21.8301 15.1618C20.7558 14.7783 19.6079 14.3895 18.197 14.3895Z"/><path fill="#61BB46" d="M31.2399 6.08868L31.2267 6L31.1373 6.00616C29.1967 6.13974 26.9376 7.37641 25.6169 8.9853C24.4227 10.4418 23.4266 12.6131 23.8145 14.7337L23.8286 14.8108L23.9068 14.8132C26.0308 14.8795 28.2167 13.6087 29.4848 11.9748C30.664 10.4539 31.5672 8.29925 31.2399 6.08868Z"/></g><path id="Vector_2" fill="#FDB827" fill-rule="evenodd" d="M10.5803 19.0167C9.78612 20.2661 9.23664 22.0568 9.09082 23.6275L34.8543 23.6268C35.1328 21.9084 36.0591 20.2667 37.5271 19.0186L10.5803 19.0167H10.5818L10.5803 19.0167Z" clip-rule="evenodd"/><path id="Vector_3" fill="#F5821F" d="M34.8494 23.6424L34.8677 23.5299L9.10417 23.5306L9.09461 23.6168C8.93631 25.045 8.97723 26.6003 9.22878 28.2122L9.32457 28.2047L9.32457 28.2942L35.4948 28.2951L35.4346 28.159C34.8097 26.7446 34.6024 25.1624 34.8494 23.6424Z"/><path id="Vector_4" fill="#E03A3E" d="M35.4087 28.1013L9.21094 28.1003L9.22835 28.2121C9.46094 29.706 9.87394 31.2489 10.4765 32.785V32.8636L39.6233 32.8655L39.6773 32.7459C39.7264 32.6369 39.7772 32.5243 39.8296 32.4074L39.8716 32.3136L39.7755 32.2771C37.7021 31.4907 36.23 29.9607 35.4342 28.159L35.4087 28.1013Z"/><path id="Vector_5" fill="#963D97" d="M39.6581 32.6715L10.4316 32.6696L10.4837 32.802C11.0479 34.2374 11.7779 35.6673 12.6796 37.0464L12.6798 37.0466C12.755 37.1609 12.8313 37.2761 12.9084 37.3914L12.9372 37.4345L37.0592 37.4322L37.0881 37.39C37.2329 37.1779 37.372 36.9679 37.5063 36.7629L37.5064 36.7629C38.5072 35.2332 38.9273 34.4028 39.6494 32.8085L39.6581 32.7894V32.6715Z"/><path id="Vector_6" fill="#009DDC" d="M37.0885 37.3898L37.1914 37.2383L12.8076 37.2406L12.9087 37.3915C13.6491 38.4966 14.509 39.6405 15.5003 40.5116C16.4918 41.3829 17.6223 41.9879 18.9026 41.9997C20.0129 42.0102 20.7553 41.6779 21.5395 41.3269C21.5971 41.3011 21.655 41.2752 21.7133 41.2493C22.561 40.8729 23.5045 40.4946 25.0699 40.4858C26.6346 40.4772 27.5619 40.8538 28.3933 41.2329C28.4557 41.2614 28.5177 41.2899 28.5794 41.3184C29.3432 41.67 30.0703 42.0047 31.1737 41.9947C32.4035 41.9831 33.5168 41.3664 34.5016 40.491C35.4867 39.6153 36.3525 38.4724 37.0885 37.3898Z"/></g></g></svg>

<svg xmlns="http://www.w3.org/2000/svg" fill="none" aria-hidden="true" viewBox="0 0 48 48"><path fill="#61BB46" d="M18.197 14.39c-2.773 0-5.71 1.69-7.57 4.563a1.679 1.679 0 0 0-.035.056l-.014.023v.124l26.783.002.027-.024a8.156 8.156 0 0 1 1.36-.934l.1-.055-.07-.09c-1.853-2.32-4.46-3.668-6.927-3.668-1.627 0-2.785.389-3.811.774l-.276.104c-.913.347-1.732.658-2.728.658-1.08 0-2.036-.343-3.057-.708l-.149-.053c-1.074-.384-2.222-.773-3.633-.773Z"/><path fill="#61BB46" d="M31.24 6.089 31.227 6l-.09.006c-1.94.134-4.2 1.37-5.52 2.98-1.194 1.456-2.19 3.627-1.802 5.748l.014.077.078.002c2.124.066 4.31-1.204 5.578-2.838 1.18-1.521 2.082-3.676 1.755-5.886Z"/><path fill="#FDB827" fill-rule="evenodd" d="M10.58 19.017c-.794 1.25-1.343 3.04-1.49 4.61h25.764c.279-1.719 1.205-3.36 2.673-4.608l-26.947-.002h.002-.002Z" clip-rule="evenodd"/><path fill="#F5821F" d="m34.85 23.642.018-.112H9.104l-.01.087c-.157 1.428-.117 2.983.135 4.595l.096-.007v.09h26.17l-.06-.136a8.037 8.037 0 0 1-.585-4.517Z"/><path fill="#E03A3E" d="M35.41 28.101H9.211l.017.111a21.715 21.715 0 0 0 1.248 4.573v.079l29.147.002.054-.12.152-.339.042-.093-.096-.037a7.684 7.684 0 0 1-4.341-4.118l-.026-.058Z"/><path fill="#963D97" d="m39.658 32.672-29.226-.002.052.132a23.439 23.439 0 0 0 2.196 4.244c.075.115.152.23.229.345l.028.044 24.123-.003.028-.042c.145-.212.284-.422.419-.627 1-1.53 1.42-2.36 2.143-3.954l.008-.02v-.117Z"/><path fill="#009DDC" d="m37.089 37.39.102-.152-24.383.003.1.15c.741 1.106 1.601 2.25 2.592 3.12.992.872 2.122 1.477 3.403 1.489 1.11.01 1.852-.322 2.637-.673l.173-.078c.848-.376 1.791-.754 3.357-.763 1.565-.009 2.492.368 3.323.747l.186.085c.764.352 1.491.687 2.595.677 1.23-.012 2.343-.629 3.328-1.504.985-.876 1.85-2.019 2.587-3.101Z"/></svg>
